X:63
T:Banks of Tay. JJo8.063
B:J.Johnson Choice Collection Vol 8 1758
Z:vmp.Simon Wilson 2013 www.village-music-project.org.uk
M:C
L:1/4
Q:1/2=100
K:D
F/G/AAA|Ad2e|{g}f2ed|c/d/ee2|F/G/AAA|
Ad2e|fdAc|d2D2::d/e/fff|fd2B|c/d/eee|
ec2A|Bd2BAd2A|BAGF|E3E|F/G/AAA|
Ad2e|{g}f2ed|c/d/ee2|F/G/AAA|Ad2e|fdAc|d2D2:|
